FlatUX/src/svg/Nintendo - Nintendo Entertainment System-content.svg

<svg enable-background="new 0 0 256 256" viewBox="0 0 256 256" xmlns="http://www.w3.org/2000/svg"><path d="m230 12h-204c-1.105 0-2 .895-2 2v188c0 1.105.895 2 2 2h6.653l-.62 37.967c-.018 1.117.882 2.033 2 2.033h183.967c1.105 0 2-.895 2-2v-38h10c1.105 0 2-.895 2-2v-188c0-1.105-.895-2-2-2z" fill="#93a3a3"/><path d="m56 216h44v4h-44z" fill="#7f8b8c"/><path d="m56 212h44v4h-44z" fill="#93a3a3"/><path d="m56 208h44v4h-44z" fill="#7f8b8c"/><path d="m56 204h44v4h-44z" fill="#93a3a3"/><path d="m56 200h44v4h-44z" fill="#7f8b8c"/><path d="m56 196h44v4h-44z" fill="#93a3a3"/><path d="m56 192h44v4h-44z" fill="#7f8b8c"/><path d="m56 188h44v4h-44z" fill="#93a3a3"/><path d="m56 184h44v4h-44z" fill="#7f8b8c"/><path d="m56 180h44v4h-44z" fill="#93a3a3"/><path d="m56 176h44v4h-44z" fill="#7f8b8c"/><path d="m56 172h44v4h-44z" fill="#93a3a3"/><path d="m56 168h44v4h-44z" fill="#7f8b8c"/><path d="m56 164h44v4h-44z" fill="#93a3a3"/><path d="m56 160h44v4h-44z" fill="#7f8b8c"/><path d="m56 156h44v4h-44z" fill="#93a3a3"/><path d="m56 152h44v4h-44z" fill="#7f8b8c"/><path d="m56 148h44v4h-44z" fill="#93a3a3"/><path d="m56 144h44v4h-44z" fill="#7f8b8c"/><path d="m56 140h44v4h-44z" fill="#93a3a3"/><path d="m56 136h44v4h-44z" fill="#7f8b8c"/><path d="m56 132h44v4h-44z" fill="#93a3a3"/><path d="m56 128h44v4h-44z" fill="#7f8b8c"/><path d="m56 124h44v4h-44z" fill="#93a3a3"/><path d="m56 120h44v4h-44z" fill="#7f8b8c"/><path d="m56 116h44v4h-44z" fill="#93a3a3"/><path d="m56 112h44v4h-44z" fill="#7f8b8c"/><path d="m56 108h44v4h-44z" fill="#93a3a3"/><path d="m56 104h44v4h-44z" fill="#7f8b8c"/><path d="m56 100h44v4h-44z" fill="#93a3a3"/><path d="m56 96h44v4h-44z" fill="#7f8b8c"/><path d="m56 92h44v4h-44z" fill="#93a3a3"/><path d="m56 88h44v4h-44z" fill="#7f8b8c"/><path d="m56 84h44v4h-44z" fill="#93a3a3"/><path d="m56 80h44v4h-44z" fill="#7f8b8c"/><path d="m56 76h44v4h-44z" fill="#93a3a3"/><path d="m56 72h44v4h-44z" fill="#7f8b8c"/><path d="m56 68h44v4h-44z" fill="#93a3a3"/><path d="m56 64h44v4h-44z" fill="#7f8b8c"/><path d="m56 60h44v4h-44z" fill="#93a3a3"/><path d="m56 56h44v4h-44z" fill="#7f8b8c"/><path d="m56 52h44v4h-44z" fill="#93a3a3"/><path d="m56 48h44v4h-44z" fill="#7f8b8c"/><path d="m56 44h44v4h-44z" fill="#6c7a88"/><path d="m56 40h44v4h-44z" fill="#7f8b8c"/><path d="m56 36h44v4h-44z" fill="#6c7a88"/><path d="m56 32h44v4h-44z" fill="#7f8b8c"/><path d="m56 28h44v4h-44z" fill="#6c7a88"/><path d="m56 24h44v4h-44z" fill="#7f8b8c"/><path d="m56 20h44v4h-44z" fill="#6c7a88"/><path d="m56 12h44v4h-44z" fill="#6c7a88"/><path d="m56 16h44v4h-44z" fill="#7f8b8c"/><path d="m56 219.67h44v24.33h-44z" fill="#7f8b8c"/><path d="m203 168h-94c-.552 0-1-.448-1-1v-155h96v155c0 .552-.448 1-1 1z" fill="#1b80bb"/><g fill="#7f8b8c"><path d="m212 12h12v4h-12z"/><path d="m32 12h12v4h-12z"/><path d="m128 200-10-16h20z"/></g></svg>

<svg xmlns="http://www.w3.org/2000/svg" viewBox="0 0 256 256"><path fill="#93a3a3" d="M230 12H26a2 2 0 0 0-2 2v188a2 2 0 0 0 2 2h6.653l-.62 37.967a2 2 0 0 0 2 2.033H218a2 2 0 0 0 2-2v-38h10a2 2 0 0 0 2-2V14a2 2 0 0 0-2-2"/><path fill="#7f8b8c" d="M56 216h44v4H56z"/><path fill="#93a3a3" d="M56 212h44v4H56z"/><path fill="#7f8b8c" d="M56 208h44v4H56z"/><path fill="#93a3a3" d="M56 204h44v4H56z"/><path fill="#7f8b8c" d="M56 200h44v4H56z"/><path fill="#93a3a3" d="M56 196h44v4H56z"/><path fill="#7f8b8c" d="M56 192h44v4H56z"/><path fill="#93a3a3" d="M56 188h44v4H56z"/><path fill="#7f8b8c" d="M56 184h44v4H56z"/><path fill="#93a3a3" d="M56 180h44v4H56z"/><path fill="#7f8b8c" d="M56 176h44v4H56z"/><path fill="#93a3a3" d="M56 172h44v4H56z"/><path fill="#7f8b8c" d="M56 168h44v4H56z"/><path fill="#93a3a3" d="M56 164h44v4H56z"/><path fill="#7f8b8c" d="M56 160h44v4H56z"/><path fill="#93a3a3" d="M56 156h44v4H56z"/><path fill="#7f8b8c" d="M56 152h44v4H56z"/><path fill="#93a3a3" d="M56 148h44v4H56z"/><path fill="#7f8b8c" d="M56 144h44v4H56z"/><path fill="#93a3a3" d="M56 140h44v4H56z"/><path fill="#7f8b8c" d="M56 136h44v4H56z"/><path fill="#93a3a3" d="M56 132h44v4H56z"/><path fill="#7f8b8c" d="M56 128h44v4H56z"/><path fill="#93a3a3" d="M56 124h44v4H56z"/><path fill="#7f8b8c" d="M56 120h44v4H56z"/><path fill="#93a3a3" d="M56 116h44v4H56z"/><path fill="#7f8b8c" d="M56 112h44v4H56z"/><path fill="#93a3a3" d="M56 108h44v4H56z"/><path fill="#7f8b8c" d="M56 104h44v4H56z"/><path fill="#93a3a3" d="M56 100h44v4H56z"/><path fill="#7f8b8c" d="M56 96h44v4H56z"/><path fill="#93a3a3" d="M56 92h44v4H56z"/><path fill="#7f8b8c" d="M56 88h44v4H56z"/><path fill="#93a3a3" d="M56 84h44v4H56z"/><path fill="#7f8b8c" d="M56 80h44v4H56z"/><path fill="#93a3a3" d="M56 76h44v4H56z"/><path fill="#7f8b8c" d="M56 72h44v4H56z"/><path fill="#93a3a3" d="M56 68h44v4H56z"/><path fill="#7f8b8c" d="M56 64h44v4H56z"/><path fill="#93a3a3" d="M56 60h44v4H56z"/><path fill="#7f8b8c" d="M56 56h44v4H56z"/><path fill="#93a3a3" d="M56 52h44v4H56z"/><path fill="#7f8b8c" d="M56 48h44v4H56z"/><path fill="#6c7a88" d="M56 44h44v4H56z"/><path fill="#7f8b8c" d="M56 40h44v4H56z"/><path fill="#6c7a88" d="M56 36h44v4H56z"/><path fill="#7f8b8c" d="M56 32h44v4H56z"/><path fill="#6c7a88" d="M56 28h44v4H56z"/><path fill="#7f8b8c" d="M56 24h44v4H56z"/><path fill="#6c7a88" d="M56 20h44v4H56zm0-8h44v4H56z"/><path fill="#7f8b8c" d="M56 16h44v4H56zm0 203.67h44V244H56z"/><path fill="#1b80bb" d="M203 168h-94a1 1 0 0 1-1-1V12h96v155a1 1 0 0 1-1 1"/><path fill="#7f8b8c" d="M212 12h12v4h-12zM32 12h12v4H32zm96 188-10-16h20z"/></svg>
